assets/sonr-icons/device-pc.svg

<svg xmlns="http://www.w3.org/2000/svg" width="24" height="24" fill="none" viewBox="0 0 24 24"><path fill="#000" d="M16.838 3C17.365 3 17.82 3 18.195 3.031C18.59 3.063 18.983 3.134 19.362 3.327C19.927 3.614 20.386 4.073 20.673 4.638C20.866 5.017 20.937 5.41 20.969 5.805C21 6.179 21 6.635 21 7.162V12.84C21 13.367 21 13.822 20.969 14.197C20.937 14.592 20.865 14.985 20.673 15.364C20.386 15.929 19.927 16.388 19.362 16.675C18.983 16.868 18.59 16.939 18.195 16.971C17.821 17.002 17.366 17.002 16.838 17.002H7.16102C6.63402 17.002 6.17902 17.002 5.80402 16.971C5.40902 16.939 5.01602 16.867 4.63702 16.675C4.07202 16.388 3.61302 15.929 3.32602 15.364C3.13302 14.985 3.06202 14.592 3.03002 14.197C2.99902 13.823 2.99902 13.367 2.99902 12.84V7.163C2.99902 6.636 2.99902 6.181 3.03002 5.806C3.06202 5.411 3.13302 5.018 3.32602 4.639C3.61302 4.074 4.07202 3.615 4.63702 3.328C5.01602 3.135 5.40902 3.064 5.80402 3.032C6.17802 3.001 6.63402 3.001 7.16102 3.001L16.838 3ZM19 11V7.2C19 6.623 18.999 6.251 18.976 5.968C18.953 5.697 18.916 5.595 18.891 5.547C18.795 5.359 18.642 5.206 18.454 5.11C18.405 5.084 18.304 5.047 18.032 5.025C17.749 5.002 17.377 5.001 16.8 5.001H7.20002C6.62302 5.001 6.25102 5.002 5.96802 5.025C5.69702 5.047 5.59502 5.085 5.54702 5.11C5.35902 5.206 5.20602 5.359 5.11002 5.547C5.08402 5.597 5.04702 5.697 5.02502 5.968C5.00202 6.251 5.00102 6.623 5.00102 7.2V11H19ZM5.00002 13C5.00102 13.465 5.00402 13.783 5.02402 14.032C5.04702 14.303 5.08402 14.404 5.10902 14.454C5.20502 14.642 5.35802 14.795 5.54602 14.891C5.59602 14.916 5.69602 14.954 5.96802 14.976C6.25102 14.999 6.62302 15 7.20002 15H16.8C17.377 15 17.749 14.999 18.032 14.976C18.303 14.953 18.404 14.916 18.454 14.891C18.642 14.795 18.795 14.642 18.891 14.454C18.917 14.405 18.954 14.304 18.976 14.032C18.996 13.783 18.999 13.465 19 13H5.00002ZM8.00002 20C8.00002 19.448 8.44802 19 9.00002 19H15C15.552 19 16 19.448 16 20C16 20.552 15.552 21 15 21H9.00002C8.44802 21 8.00002 20.552 8.00002 20Z"/></svg>

<svg xmlns="http://www.w3.org/2000/svg" width="24" height="24" fill="none"><path fill="currentColor" d="M16.838 3c.527 0 .982 0 1.357.031.395.032.788.103 1.167.296a3 3 0 0 1 1.311 1.311c.193.379.264.772.296 1.167.031.374.031.83.031 1.357v5.678c0 .527 0 .982-.031 1.357-.032.395-.104.788-.296 1.167a3 3 0 0 1-1.311 1.311c-.379.193-.772.264-1.167.296-.374.031-.829.031-1.357.031H7.161c-.527 0-.982 0-1.357-.031-.395-.032-.788-.104-1.167-.296a3 3 0 0 1-1.311-1.311c-.193-.379-.264-.772-.296-1.167-.031-.374-.031-.83-.031-1.357V7.163c0-.527 0-.982.031-1.357.032-.395.103-.788.296-1.167a3 3 0 0 1 1.311-1.311c.379-.193.772-.264 1.167-.296.374-.031.83-.031 1.357-.031zM19 11V7.2c0-.577-.001-.949-.024-1.232-.023-.271-.06-.373-.085-.421a1 1 0 0 0-.437-.437c-.049-.026-.15-.063-.422-.085-.283-.023-.655-.024-1.232-.024H7.2c-.577 0-.949.001-1.232.024-.271.022-.373.06-.421.085a1 1 0 0 0-.437.437c-.026.05-.063.15-.085.421-.023.283-.024.655-.024 1.232V11zM5 13c.001.465.004.783.024 1.032.023.271.06.372.085.422.096.188.249.341.437.437.05.025.15.063.422.085.283.023.655.024 1.232.024h9.6c.577 0 .949-.001 1.232-.024.271-.023.372-.06.422-.085.188-.096.341-.249.437-.437.026-.049.063-.15.085-.422.02-.249.023-.567.024-1.032zm3 7a1 1 0 0 1 1-1h6a1 1 0 0 1 0 2H9a1 1 0 0 1-1-1"/></svg>
